packages/icons/svg/Outline/question-mark-circle.svg

<svg fill="none" height="24" viewBox="0 0 24 24" width="24" xmlns="http://www.w3.org/2000/svg"><path clip-rule="evenodd" d="m8.49997 9.49993c0-1.93 1.57003-3.5 3.50003-3.5s3.5 1.57 3.5 3.5c0 1.57997-1.06 2.90297-2.5 3.33697v1.163c0 .553-.447 1-1 1s-1-.447-1-1v-2c0-.553.447-1 1-1 .827 0 1.5-.673 1.5-1.49997 0-.827-.673-1.5-1.5-1.5s-1.5.673-1.5 1.5c0 .55297-.447.99997-1.00003.99997-.553 0-1-.447-1-.99997zm2.50003 7.49997c0-.553.447-1 1-1s1 .447 1 1-.447 1-1 1-1-.447-1-1zm1 3.0002c-4.41103 0-8.00003-3.589-8.00003-8 0-4.41104 3.589-8.00003 8.00003-8.00003 4.411 0 8 3.58899 8 8.00003 0 4.411-3.589 8-8 8zm0-18.0001c-5.514 0-10 4.486-10 10s4.486 10 10 10 10-4.486 10-10-4.486-10-10-10z" fill="#6b7280" fill-rule="evenodd"/></svg>

<svg width="24" height="24" viewBox="0 0 24 24" fill="none" xmlns="http://www.w3.org/2000/svg">
<g id="Icon/Outline/question-mark-circle">
<path id="Mask" fill-rule="evenodd" clip-rule="evenodd" d="M8.5 9.5C8.5 7.57 10.07 6 12 6C13.93 6 15.5 7.57 15.5 9.5C15.5 11.08 14.44 12.403 13 12.837V14C13 14.553 12.553 15 12 15C11.447 15 11 14.553 11 14V12C11 11.447 11.447 11 12 11C12.827 11 13.5 10.327 13.5 9.5C13.5 8.673 12.827 8 12 8C11.173 8 10.5 8.673 10.5 9.5C10.5 10.053 10.053 10.5 9.5 10.5C8.947 10.5 8.5 10.053 8.5 9.5ZM11 17C11 16.447 11.447 16 12 16C12.553 16 13 16.447 13 17C13 17.553 12.553 18 12 18C11.447 18 11 17.553 11 17ZM12 20C7.589 20 4 16.411 4 12C4 7.589 7.589 4 12 4C16.411 4 20 7.589 20 12C20 16.411 16.411 20 12 20ZM12 2C6.486 2 2 6.486 2 12C2 17.514 6.486 22 12 22C17.514 22 22 17.514 22 12C22 6.486 17.514 2 12 2Z" fill="#000000"/>
</g>
</svg>
